public/assets/integrations/sst.svg

<svg width="85" height="65" viewBox="0 0 85 65" fill="none" xmlns="http://www.w3.org/2000/svg">
<path fill-rule="evenodd" clip-rule="evenodd" d="M22.3366 51.4998C22.3963 51.4118 22.4025 51.2981 22.3527 51.2034C22.3029 51.11 22.2052 51.0518 22.0988 51.0518C19.8457 51.0518 11.0675 51.0518 5.27476 51.0518C3.87494 51.0518 2.53263 50.4956 1.54343 49.5049C0.554086 48.5142 -0.00121606 47.1716 1.99966e-06 45.7722C0.00595698 38.4814 0.0165138 25.7255 0.020168 21.2823C0.0209801 20.247 0.292474 19.2306 0.80758 18.3319C2.66553 15.0945 7.3536 6.92404 9.79487 2.66894C10.742 1.01778 12.4996 0 14.4027 0H68.938C70.0857 0 71.1428 0.623955 71.6991 1.62683C72.2552 2.63106 72.2227 3.85721 71.6141 4.8303C69.5899 8.0663 67.0634 12.1062 65.7494 14.2067C65.5707 14.4923 65.5611 14.8523 65.7245 15.1473C65.8877 15.4424 66.1982 15.6251 66.535 15.6251C69.448 15.6251 75.5484 15.6251 79.8223 15.6251C82.3898 15.6251 84.471 17.7066 84.471 20.274V43.7691C84.471 46.3947 83.8057 48.9784 82.5371 51.2765C80.939 54.1728 78.3456 58.2763 76.7102 61.2403C75.4301 63.56 72.9904 65 70.3411 65H19.1583C17.9853 65 16.9082 64.3517 16.3589 63.315C15.8095 62.2797 15.8777 61.0237 16.536 60.0533C18.7674 56.7632 21.4462 52.8126 22.3366 51.4998Z" fill="#E27152"/>
<path fill-rule="evenodd" clip-rule="evenodd" d="M30.2249 49.0352C29.1545 49.0352 28.1511 49.5563 27.5344 50.4306C25.8334 52.8437 22.3568 57.7755 20.6071 60.2577C20.4026 60.5487 20.3769 60.9276 20.5402 61.2429C20.7036 61.5583 21.0288 61.7559 21.3835 61.7559C29.2185 61.7559 59.6145 61.7559 69.1579 61.7559C70.9171 61.7559 72.542 60.8153 73.419 59.29C74.6679 57.1178 76.8133 53.9603 78.0993 51.7231C78.4186 51.1682 78.4177 50.4847 78.097 49.9312C77.7763 49.3763 77.1844 49.0352 76.5441 49.0352C66.8957 49.0352 37.6132 49.0352 30.2249 49.0352Z" fill="#FFFBF9"/>
<path fill-rule="evenodd" clip-rule="evenodd" d="M16.7542 35.3536C14.9549 35.359 13.2576 36.19 12.1493 37.6084C10.5674 39.6318 8.23064 42.6214 6.4953 44.841C6.06303 45.3932 5.98399 46.1443 6.29162 46.775C6.59911 47.407 7.23968 47.8063 7.94155 47.8063H24.4549C25.0379 46.576 26.278 45.7911 27.6401 45.7911C34.1708 45.7911 53.1912 45.7911 59.5546 45.7911C60.8602 45.7911 62.0719 45.1117 62.7536 43.9978C63.9647 42.0205 65.8999 38.8603 67.0955 36.9073C67.3097 36.5568 67.3179 36.1183 67.1166 35.761C66.9154 35.4023 66.5363 35.1817 66.1258 35.1831C57.8228 35.2115 26.4211 35.3198 16.7542 35.3536Z" fill="#FFFBF9"/>
<path fill-rule="evenodd" clip-rule="evenodd" d="M67.4768 43.1533C67.1457 43.6852 67.129 44.3552 67.4334 44.9033C67.7378 45.4514 68.3153 45.7911 68.942 45.7911H78.2027C78.9173 45.7911 79.6027 45.5069 80.1079 45.0021C80.6133 44.4959 80.8971 43.8111 80.8971 43.0965C80.8971 37.9197 80.8971 26.6431 80.8971 21.5097C80.8971 20.0507 79.7149 18.8692 78.2565 18.8692C69.8008 18.8692 43.4566 18.8692 35.056 18.8692C33.4357 18.8692 31.9278 19.6975 31.0586 21.0644C29.526 23.4762 27.742 27.3198 26.2329 29.6937C25.9648 30.1146 25.9477 30.6492 26.1884 31.0877C26.4289 31.5262 26.889 31.7983 27.3888 31.7983H68.4092C69.6466 31.7983 70.7869 32.4696 71.3879 33.5509C71.9888 34.6323 71.9561 35.9546 71.3022 37.0062C69.9995 39.0999 68.554 41.4223 67.4768 43.1533Z" fill="#FFFBF9"/>
<path fill-rule="evenodd" clip-rule="evenodd" d="M59.9333 15.625C60.288 15.625 60.6186 15.4451 60.8126 15.1487C61.8367 13.5801 65.1429 8.51697 66.9493 5.75061C67.1889 5.38384 67.2082 4.9142 66.9997 4.52983C66.791 4.14411 66.3881 3.90455 65.9498 3.90455C57.9892 3.90455 30.6062 3.90455 19.215 3.90455C17.88 3.90455 16.5998 4.43372 15.6558 5.37839C14.7119 6.32172 14.1815 7.60204 14.1815 8.93785C14.1815 13.9482 14.1815 21.6112 14.1815 26.7379C14.1815 28.14 14.7557 29.4798 15.7702 30.4475C16.7847 31.4152 18.1509 31.9241 19.5512 31.8578C19.5515 31.8578 20.2108 31.8578 20.2108 31.8578C20.2282 31.7157 25.538 22.549 28.4686 18.0544C29.4576 16.5386 31.1453 15.625 32.9554 15.625C39.7998 15.625 56.6284 15.625 59.9333 15.625Z" fill="#FFFBF9"/>
</svg>

<svg xmlns="http://www.w3.org/2000/svg" fill="#FFFBF9" viewBox="0 0 85 65">
  <path fill="#E27152" d="M22.34 51.5a.3.3 0 0 0 .01-.3.29.29 0 0 0-.25-.15H5.27A5.27 5.27 0 0 1 0 45.77l.02-24.49c0-1.03.27-2.05.79-2.95L9.79 2.67A5.31 5.31 0 0 1 14.4 0h54.54a3.16 3.16 0 0 1 2.67 4.83l-5.86 9.38a.93.93 0 0 0 .78 1.42h13.3a4.65 4.65 0 0 1 4.64 4.64v23.5c0 2.62-.66 5.2-1.93 7.5-1.6 2.9-4.2 7-5.83 9.97A7.27 7.27 0 0 1 70.34 65H19.16a3.17 3.17 0 0 1-2.62-4.95l5.8-8.55Z"/>
  <path d="M30.22 49.04a3.3 3.3 0 0 0-2.69 1.4l-6.92 9.82a.95.95 0 0 0 .77 1.5h47.78c1.76 0 3.38-.94 4.26-2.47 1.25-2.17 3.4-5.33 4.68-7.57a1.8 1.8 0 0 0-1.56-2.68H30.22ZM16.75 35.35c-1.8 0-3.5.84-4.6 2.26L6.5 44.84a1.83 1.83 0 0 0 1.44 2.97h16.51a3.52 3.52 0 0 1 3.19-2.02h31.91c1.31 0 2.52-.68 3.2-1.8l4.35-7.08a1.13 1.13 0 0 0-.97-1.73l-49.38.17Z"/>
  <path d="M67.48 43.15a1.73 1.73 0 0 0 1.46 2.64h9.26a2.7 2.7 0 0 0 2.7-2.7V21.52a2.64 2.64 0 0 0-2.64-2.64h-43.2c-1.62 0-3.13.83-4 2.2-1.53 2.4-3.32 6.25-4.83 8.62a1.37 1.37 0 0 0 1.16 2.1H68.4a3.4 3.4 0 0 1 2.9 5.22l-3.83 6.14Z"/>
  <path d="M59.93 15.63c.36 0 .69-.18.88-.48l6.14-9.4a1.2 1.2 0 0 0-1-1.85H19.22a5.03 5.03 0 0 0-5.04 5.04v17.8a5.13 5.13 0 0 0 5.37 5.12h.66c.02-.14 5.33-9.31 8.26-13.8a5.36 5.36 0 0 1 4.49-2.43h26.97Z"/>
</svg>
